assets/logos/SVG/GNO-alt.svg

<svg enable-background="new 0 0 226.8 226.8" viewBox="0 0 226.8 226.8" xmlns="http://www.w3.org/2000/svg"><path d="m138.092 88.931c-6.31-6.31-14.882-9.931-23.811-9.931h-.06c-8.87 0-17.144 3.323-23.454 9.455l23.811 23.87z"/><path d="m114.4 0c-62.6 0-113.4 50.8-113.4 113.4s50.8 113.4 113.4 113.4 113.4-50.8 113.4-113.4-50.8-113.4-113.4-113.4zm-27.144 87.431c7.024-7.441 16.608-11.431 26.906-11.431h.06c10.417 0 20.418 4.288 27.382 12.026l1.071 1.102-28.097 27.933-28.453-28.506zm50.836 16.372c0 3.869-3.155 7.024-7.024 7.024-1.488 0-2.798-.417-3.929-1.19l9.762-9.762c.774 1.13 1.191 2.499 1.191 3.928zm-35.538 6.429c-1.191.952-2.679 1.488-4.286 1.488-3.869 0-7.024-3.155-7.024-7.024 0-1.607.536-3.095 1.429-4.286zm-22.68 24.941c-14.167-.893-33.692-4.405-46.312-15.775-7.798-6.965-9.286-13.325-9.346-13.622l-.416-1.776h51.55l-.298 1.657c-.238 1.726-.357 3.388-.357 5.115 0 7.858 2.262 15.415 6.607 21.904l1.905 2.767zm34.586 11.827h-.06c-18.989 0-34.466-15.616-34.407-34.605 0-6.369 1.786-12.6 5.06-17.957l.595-1.032 3.155 3.145c-.595.893-1.131 1.84-1.488 2.912-2.5 6.846 1.071 14.403 7.977 16.903 4.107 1.429 8.453.773 11.846-1.489l7.322 7.381 8.393-8.394c.774.536 1.667.952 2.619 1.309 6.727 2.381 14.108-1.131 16.489-7.798 1.429-3.929.774-8.036-1.31-11.31l2.619-2.619.655 1.071c3.274 5.417 5 11.688 5 17.997-.059 18.989-15.476 34.486-34.465 34.486zm80.837-27.601c-12.62 11.37-32.204 14.882-46.372 15.775l-3.333.238 1.845-2.798c4.345-6.488 6.607-14.048 6.607-21.846 0-1.786-.119-3.384-.357-5.11l-.237-1.658h51.55l-.417 1.776c-.059.298-1.547 6.658-9.286 13.623z"/></svg>

<?xml version="1.0" encoding="utf-8"?>
<!-- Generator: Adobe Illustrator 20.1.0, SVG Export Plug-In . SVG Version: 6.00 Build 0)  -->
<svg version="1.1" id="Vrstva_1" xmlns="http://www.w3.org/2000/svg" xmlns:xlink="http://www.w3.org/1999/xlink" x="0px" y="0px"
	 viewBox="0 0 226.8 226.8" style="enable-background:new 0 0 226.8 226.8;" xml:space="preserve">
<g>
	<path d="M138.092,88.931C131.782,82.621,123.21,79,114.281,79h-0.06c-8.87,0-17.144,3.323-23.454,9.455l23.811,23.87
		L138.092,88.931z"/>
	<path d="M114.4,0C51.8,0,1,50.8,1,113.4s50.8,113.4,113.4,113.4S227.8,176,227.8,113.4S177,0,114.4,0z M87.256,87.431
		C94.28,79.99,103.864,76,114.162,76h0.06c10.417,0,20.418,4.288,27.382,12.026l1.071,1.102l-28.097,27.933L86.125,88.555
		L87.256,87.431z M138.092,103.803c0,3.869-3.155,7.024-7.024,7.024c-1.488,0-2.798-0.417-3.929-1.19l9.762-9.762
		C137.675,101.005,138.092,102.374,138.092,103.803z M102.554,110.232c-1.191,0.952-2.679,1.488-4.286,1.488
		c-3.869,0-7.024-3.155-7.024-7.024c0-1.607,0.536-3.095,1.429-4.286L102.554,110.232z M79.874,135.173
		c-14.167-0.893-33.692-4.405-46.312-15.775c-7.798-6.965-9.286-13.325-9.346-13.622L23.8,104h51.55l-0.298,1.657
		c-0.238,1.726-0.357,3.388-0.357,5.115c0,7.858,2.262,15.415,6.607,21.904l1.905,2.767L79.874,135.173z M114.46,147h-0.06
		c-18.989,0-34.466-15.616-34.407-34.605c0-6.369,1.786-12.6,5.06-17.957l0.595-1.032l3.155,3.145
		c-0.595,0.893-1.131,1.84-1.488,2.912c-2.5,6.846,1.071,14.403,7.977,16.903c4.107,1.429,8.453,0.773,11.846-1.489l7.322,7.381
		l8.393-8.394c0.774,0.536,1.667,0.952,2.619,1.309c6.727,2.381,14.108-1.131,16.489-7.798c1.429-3.929,0.774-8.036-1.31-11.31
		l2.619-2.619l0.655,1.071c3.274,5.417,5,11.688,5,17.997C148.866,131.503,133.449,147,114.46,147z M195.297,119.399
		c-12.62,11.37-32.204,14.882-46.372,15.775l-3.333,0.238l1.845-2.798c4.345-6.488,6.607-14.048,6.607-21.846
		c0-1.786-0.119-3.384-0.357-5.11L153.45,104H205l-0.417,1.776C204.524,106.074,203.036,112.434,195.297,119.399z"/>
</g>
</svg>
